www/assets/icons/lyrics.svg

<svg xmlns="http://www.w3.org/2000/svg" width="24" height="24" viewBox="0 0 24 24" fill='currentColor'><path d="M13 9.5c0-2.04 1.24-3.79 3-4.57V4.5c0-1.1-.9-2-2-2H3c-1.1 0-1.99.9-1.99 2L1 22.5l4-4h9c1.1 0 2-.9 2-2v-2.42c-1.76-.78-3-2.53-3-4.58m-4 5H5v-2h4zm3-3H5v-2h7zm0-3H5v-2h7z"/><path d="M19 6.68c-.31-.11-.65-.18-1-.18-1.66 0-3 1.34-3 3s1.34 3 3 3 3-1.34 3-3v-6h2v-2h-4z"/></svg>

<svg width="24" height="24" viewBox="0 0 24 24" xmlns="http://www.w3.org/2000/svg" fill='currentColor'><path d="M13 9.5C13 7.46 14.24 5.71 16 4.93V4.5C16 3.4 15.1 2.5 14 2.5H3C1.9 2.5 1.01 3.4 1.01 4.5L1 22.5L5 18.5H14C15.1 18.5 16 17.6 16 16.5V14.08C14.24 13.3 13 11.55 13 9.5ZM9 14.5H5V12.5H9V14.5ZM12 11.5H5V9.5H12V11.5ZM12 8.5H5V6.5H12V8.5Z"/><path d="M19 6.68C18.69 6.57 18.35 6.5 18 6.5C16.34 6.5 15 7.84 15 9.5C15 11.16 16.34 12.5 18 12.5C19.66 12.5 21 11.16 21 9.5V3.5H23V1.5H19V6.68Z"/></svg>
